X:5
T:Mörliegg-Juiz. 2009 Bb  ABAC
T:Peter Ming (03.03.1952)
T:Dirigenten-Notiz  Edi Gasser
C:Unterwalden (CH)
%%partsbox
P:ABAC
R:Naturjodel
M:3/4
L:1/4
K:Bb
[P:A] B,DF | d>f d/c/ | BDB | AF>E | C3 | A,CF | e>f d/e/ | [M:2/4] cF | B>D | 
F/D/ F/d/ | B2 | [M:3/4] B,DF | d>f d/c/ | BDB | AF>E | C3 | A,CF | e>f d/e/ | c2F | B3 || 
M:3/4
[P:B] df/d/ f/d/ | ce/c/ e/c/ | BDB/D/ | F2f | cFf | cFd | Bde | f3 | 
df/d/ f/d/ | ce/c/ e/c/ | BDB/D/ | F2f | cFf | cFd | (B3 | B2)z || 
M:3/4
[P:C] B,D/D/ D/D/ | FDF | ddc | BAG | Ffd | cdc | BDB/D/ | F3 | 
B,D/D/ D/D/ | FDF | ddc | BAG | Ffd | cdc | B3 | B,D/D/ D/D/ | 
F/F/ F/D/ F/B/ | d/d/ d/c/ d/c/ | BAG | Ffd | cdc | BDB/D/ | F3 | B,D/D/ D/D/ | 
F/F/ F/D/ F/B/ | d/d/ d/c/ d/c/ | BAG | Ffd | cfd | cfd | (B3 | B2) z |] 
W:
%W:Reihenfolge: A - B - A - C
W:
W:notiert Edi Gasser
W:UJV-Naturjodelsammlung: Code-Nr: 53-03
W:http://www.naturjodler.ch/code 53.htm  (with AUDIO)
%September 19, 2018

